X:328
T:Reel 328
M:4/4
K:Gmaj
L:1/8
g2gf gdBd|g2gf gbaf|gbaf gdBd|ceAB cAef|g2gf gdBd|g2gf gbaf|gbc'a gbag|fdcA AGG2|b2bg g2ag|fdde fgac'|bgaf gfdc|cBcd AGG2|bgaf gfag|fdcB ABcA|GBAc  (3Bcd eg|fdcA BGG2|bgac' bgaf|defg abc'a|bgaf gfdc|dBcA BGGc'|bgac' bgaf|gbag fddc|Bcde gabc'|d'bc'a bgg2|bgaf gfdg|fddc BdGc'|bgaf gfdg|abc'a aggb|
